flaticon/army-badges/bullet-1.svg

<svg xmlns="http://www.w3.org/2000/svg" width="32" height="32" viewBox="0 0 24 24">
    <path d="M 16.003906 20.796875 L 16.003906 8.789062 C 16.003906 8.546875 15.84375 8.386719 15.601562 8.386719 L 15.601562 6.785156 C 15.601562 4.183594 14.363281 1.660156 12.238281 0.0585938 C 12.082031 -0.0195312 11.921875 -0.0195312 11.761719 0.0585938 C 9.636719 1.660156 8.398438 4.183594 8.398438 6.785156 L 8.398438 8.386719 C 8.15625 8.386719 7.996094 8.546875 7.996094 8.789062 L 7.996094 20.796875 C 7.996094 21.039062 8.15625 21.199219 8.398438 21.199219 L 8.398438 21.597656 C 8.15625 21.597656 7.996094 21.757812 7.996094 22 L 7.996094 23.597656 C 7.996094 23.839844 8.15625 24 8.398438 24 L 15.601562 24 C 15.84375 24 16.003906 23.839844 16.003906 23.597656 L 16.003906 22 C 16.003906 21.757812 15.84375 21.597656 15.601562 21.597656 L 15.601562 21.199219 C 15.84375 21.199219 16.003906 21.039062 16.003906 20.796875 Z M 8.796875 9.1875 L 15.203125 9.1875 L 15.203125 20.398438 L 8.796875 20.398438 Z M 9.199219 6.785156 C 9.199219 4.503906 10.238281 2.34375 12 0.902344 C 13.761719 2.34375 14.800781 4.503906 14.800781 6.785156 L 14.800781 8.386719 L 9.199219 8.386719 Z M 15.203125 23.199219 L 8.796875 23.199219 L 8.796875 22.398438 L 15.203125 22.398438 Z M 14.800781 21.597656 L 9.199219 21.597656 L 9.199219 21.199219 L 14.800781 21.199219 Z M 14.800781 21.597656"/>
</svg>

<svg xmlns="http://www.w3.org/2000/svg" width="32" height="32" viewBox="0 0 24 24">
    <path d="M16.004 20.797V8.789c0-.242-.16-.402-.402-.402V6.785A8.47 8.47 0 0 0 12.238.06a.514.514 0 0 0-.476 0 8.47 8.47 0 0 0-3.364 6.726v1.602c-.242 0-.402.16-.402.402v12.008c0 .242.16.402.402.402v.399c-.242 0-.402.16-.402.402v1.598c0 .242.16.402.402.402h7.204c.242 0 .402-.16.402-.402V22c0-.242-.16-.402-.402-.402v-.399c.242 0 .402-.16.402-.402zM8.797 9.187h6.406v11.211H8.797zm.402-2.402A7.616 7.616 0 0 1 12 .902a7.616 7.616 0 0 1 2.8 5.883v1.602H9.2zM15.203 23.2H8.797v-.8h6.406zm-.402-1.601H9.199v-.399h5.602zm0 0"/>
</svg>
